app/images/react-logo-white.svg

<svg height="2235" viewBox="0 0 2486 2235" width="2486" xmlns="http://www.w3.org/2000/svg"><path d="m1246.33984 224.533203c227.34375-197.8515624 456.41602-277.6562499 615.19532-186.0937499 164.69726 94.9707029 218.76953 323.3593749 154.95117 635.2050779 284.98047 98.105469 468.54492 256.669922 468.54492 439.960939 0 190.11719-168.30078 339.48242-469.17969 438.95508 59.27735 299.47265 9.89258 549.41406-152.50976 643.42773-158.00782 91.46484-384.44336 15.58594-608.4961-177.22656-229.85351 200.92773-472.021481 265.82031-634.570309 172.07031-158.144532-91.20117-205.498047-325.27344-147.8125-615.67383-288.867188-98.74023-472.09960975-273.90625-472.09960975-461.55273 0-182.548829 192.97851575-344.707032 472.09960975-442.021486-57.871094-295.771484-12.607422-534.101562 146.02539-625.927734 164.521485-95.234375 391.328129-31.1230469 627.851559 178.876953zm54.78516 103.486328c-18.73552 16.341241-37.05516 33.153247-54.94141 50.419922-11.97793-11.481316-24.16752-22.739758-36.5625-33.769531-199.26757-176.933594-399.003903-251.4843751-518.935543-182.060547-115 66.572266-149.0625 264.257813-100.654297 511.621094 4.816278 24.496181 10.254231 48.866025 16.308594 73.085937-28.261719 8.027344-55.556641 16.582032-81.669922 25.683594-233.613281 81.445312-382.8125 209.101563-382.8125 341.50391 0 136.75781 160.15625 273.92578 403.496094 357.08984 19.731268 6.71221 39.626768 12.93159 59.667968 18.65234-6.510723 26.09317-12.290974 52.36319-17.333984 78.7793-46.152344 243.06641-10.107422 436.06445 104.589844 502.22656 118.466797 68.31055 317.294926-1.90429 510.908206-171.14257 15.30273-13.37891 30.66406-27.56836 46.04492-42.44141 19.37326 18.69199 39.2638 36.84031 59.64844 54.42383 187.53906 161.37695 372.7539 226.54297 487.35351 160.20508 118.35938-68.51563 156.81641-275.84961 106.875-528.10547-3.80859-19.26758-8.25195-38.94532-13.23242-58.98438 13.96484-4.12109 27.66602-8.37891 41.03516-12.8125 252.96875-83.80859 417.54882-219.30664 417.54882-357.89062 0-132.880863-154.0039-261.396488-392.32421-343.437504-23.48664-8.056372-47.17254-15.519678-71.03516-22.382812 3.95728-16.080023 7.61676-32.231874 10.97656-48.447266 53.76953-261.015625 18.61328-471.289062-101.44531-540.507812-115.10742-66.3867191-303.36914 2.832031-493.50586 168.291015zm497.56836 1181.103519c4.49219 18.16406 8.49609 35.96679 11.94336 53.3789 22.08008 111.54297 25.23437 212.39258 10.60547 291.23047-13.14453 70.83985-39.57031 118.06641-72.2461 136.98242-69.54101 40.25391-218.26171-12.07031-378.63281-150.07812-18.38867-15.82031-36.91406-32.71484-55.48828-50.58594 62.17773-68.00781 124.31641-147.07031 184.96094-234.86328 106.67969-9.46289 207.46094-24.94141 298.85742-46.06445zm-1102.275391 4.21875c90.380859 19.99023 190.429687 34.375 297.363281 43.04687 61.04492 85.9082 124.98047 164.87305 189.41406 234.02344-13.69385 13.24671-27.71177 26.15427-42.04101 38.71094-85.61524 74.84375-171.406253 127.92968-247.011722 154.63867h-.009766c-67.939453 23.99414-122.050781 24.67773-154.755859 5.82031-69.609375-40.13672-98.535156-195.11719-59.072266-402.97851 4.692774-24.56484 10.065934-48.99481 16.113282-73.26172zm681.943361 49.89258c-42.96875 58.39843-86.35742 111.79687-129.54102 159.3457-44.67773-48.21289-89.23828-101.5332-132.76367-158.88672 42.24609 1.66016 85.32227 2.5 129.10156 2.5 44.98047 0 89.44336-1.00586 133.20313-2.95898zm-133.19336-802.226568c68.32031 0 135.69336 2.617188 201.29883 7.617188 37.42525 55.317051 72.88677 111.93757 106.31836 169.755859 33.62045 57.969798 65.34622 117.017951 95.12695 177.050781-29.47439 60.64447-61.09925 120.21999-94.81445 178.61328h-.00977c-33.42578 58.06598-68.7309 115.02967-105.85937 170.80078-65.46875 4.67774-133.125 7.08985-202.07032 7.08985-68.66211 0-135.45898-2.13868-199.78515-6.3086-38.09145-55.64125-74.064431-112.70353-107.8418-171.06445-33.619489-58.05128-65.022325-117.35833-94.140625-177.79297 29.044238-60.45274 60.352179-119.791567 93.857422-177.890624v.019531c33.494731-58.11143 69.184513-114.929726 106.992183-170.332031 65.625-4.960937 132.91016-7.558594 200.92774-7.558594zm-451.777345 466.601558c19.954934 38.54503 40.813565 76.61545 62.558594 114.17969 22.188587 38.31863 45.287598 76.10281 69.277344 113.32031-72.265626-8.0664-140.419922-18.99414-203.359376-32.69531 19.482422-62.91015 43.486329-128.30078 71.523438-194.80469zm905.351565-3.38867c29.49219 67.22657 54.35547 132.26563 74.10156 194.11133-63.98437 14.59961-133.05664 26.35742-205.83984 35.08789 23.32374-36.97545 45.90959-74.41124 67.74414-112.28515 22.19614-38.49175 43.53281-77.47275 63.99414-116.91407zm-1067.089846-386.103512c27.617187 89.814453 63.83789 183.720702 107.548828 278.681642-44.277344 96.37695-81.015625 191.77734-108.886719 282.64648-18.294518-5.2364-36.457555-10.92171-54.472656-17.05078-107.597656-36.77734-196.455078-84.57031-257.363281-136.71875-54.726563-46.875-82.363282-93.4082-82.363282-131.17187 0-80.3418 119.794922-182.832035 319.589844-252.490238 25.077141-8.704909 50.403744-16.673817 75.947266-23.896484zm1228.203126 1.386718c22.56836 6.542969 44.48242 13.427735 65.5957 20.703125 204.19922 70.283203 328.75 174.218749 328.75 254.296879 0 85.30273-134.52148 196.04492-352.92969 268.41797h-.00976c-12.06055 3.99414-24.44336 7.85156-37.06055 11.59179-27.92969-88.4082-65.625-182.42187-111.73828-279.54101 44.01367-94.82422 80.24414-187.626957 107.39258-275.468754zm-614.69727 77.958985c-108.81836 0-197.04101 88.222659-197.04101 197.041019 0 108.82812 88.22265 197.05078 197.04101 197.05078 108.82813 0 197.04102-88.22266 197.04102-197.05078 0-108.81836-88.21289-197.041019-197.04102-197.041019zm322.10938-136.660157c70.41015 8.886719 137.86133 20.703125 201.20117 35.166016-19.01367 60.947266-42.71484 124.677734-70.625 190.00977-20.39241-38.693463-41.55548-76.975835-63.47656-114.824223-21.57151-37.261425-43.94324-74.053815-67.09961-110.351563zm-644.052736-.175781c-23.415886 36.5227-45.970931 73.590208-67.646485 111.171875-21.64662 37.547383-42.413993 75.594851-62.285156 114.111332-27.451172-65.107426-50.9375-129.121097-70.117187-190.937504 62.958984-14.091797 130.097656-25.605468 200.048828-34.345703zm824.335936-539.238281c73.88672 42.617187 102.62695 214.46289 56.20117 439.824219-3.04296 14.680928-6.35079 29.305708-9.92187 43.867187-91.54297-21.123047-190.95703-36.845703-295.03906-46.611328-60.63477-86.337891-123.45704-164.84375-186.52344-232.792969 16.52601-15.932149 33.44529-31.45126 50.74219-46.542969 162.91015-141.777343 315.16601-197.753906 384.54101-157.74414zm-600.52734 173.769531c10.99609 9.765625 22.04101 19.990234 33.10547 30.566406-64.10157 68.837891-127.45118 147.207032-187.968754 232.617188-103.779297 9.619141-203.125 25.068359-294.453125 45.761719-5.625748-22.531742-10.682692-45.201701-15.166015-67.988282v.009766c-41.47461-211.943359-13.935547-371.816406 55.371093-411.933594 73.828125-42.734375 237.060547 18.203125 409.111331 170.966797zm99.18945 97.929688c43.47656 47.099609 87.02148 99.697265 129.85352 156.757812-86.88466-4.105662-173.91429-4.125215-260.80079-.058594 42.8711-56.533203 86.78711-109.052734 130.94727-156.699218z" fill="#fff"/></svg>

<?xml version="1.0" encoding="UTF-8"?>
<svg width="2486px" height="2235px" viewBox="0 0 2486 2235" version="1.1" xmlns="http://www.w3.org/2000/svg" xmlns:xlink="http://www.w3.org/1999/xlink">
    <!-- Generator: Sketch 60.1 (88133) - https://sketch.com -->
    <title>Combined Shape</title>
    <desc>Created with Sketch.</desc>
    <g id="Page-1" stroke="none" stroke-width="1" fill="none" fill-rule="evenodd">
        <g id="react" fill="#FFFFFF" fill-rule="nonzero">
            <path d="M1246.33984,224.533203 C1473.68359,26.6816406 1702.75586,-53.1230469 1861.53516,38.4394531 C2026.23242,133.410156 2080.30469,361.798828 2016.48633,673.644531 C2301.4668,771.75 2485.03125,930.314453 2485.03125,1113.60547 C2485.03125,1303.72266 2316.73047,1453.08789 2015.85156,1552.56055 C2075.12891,1852.0332 2025.74414,2101.97461 1863.3418,2195.98828 C1705.33398,2287.45312 1478.89844,2211.57422 1254.8457,2018.76172 C1024.99219,2219.68945 782.824219,2284.58203 620.275391,2190.83203 C462.130859,2099.63086 414.777344,1865.55859 472.462891,1575.1582 C183.595703,1476.41797 0.36328125,1301.25195 0.36328125,1113.60547 C0.36328125,931.056641 193.341797,768.898438 472.462891,671.583984 C414.591797,375.8125 459.855469,137.482422 618.488281,45.65625 C783.009766,-49.578125 1009.81641,14.5332031 1246.33984,224.533203 Z M1301.125,328.019531 C1282.38948,344.360772 1264.06984,361.172778 1246.18359,378.439453 C1234.20566,366.958137 1222.01607,355.699695 1209.62109,344.669922 C1010.35352,167.736328 810.617187,93.1855469 690.685547,162.609375 C575.685547,229.181641 541.623047,426.867188 590.03125,674.230469 C594.847528,698.72665 600.285481,723.096494 606.339844,747.316406 C578.078125,755.34375 550.783203,763.898438 524.669922,773 C291.056641,854.445312 141.857422,982.101563 141.857422,1114.50391 C141.857422,1251.26172 302.013672,1388.42969 545.353516,1471.59375 C565.084784,1478.30596 584.980284,1484.52534 605.021484,1490.24609 C598.510761,1516.33926 592.73051,1542.60928 587.6875,1569.02539 C541.535156,1812.0918 577.580078,2005.08984 692.277344,2071.25195 C810.744141,2139.5625 1009.57227,2069.34766 1203.18555,1900.10938 C1218.48828,1886.73047 1233.84961,1872.54102 1249.23047,1857.66797 C1268.60373,1876.35996 1288.49427,1894.50828 1308.87891,1912.0918 C1496.41797,2073.46875 1681.63281,2138.63477 1796.23242,2072.29688 C1914.5918,2003.78125 1953.04883,1796.44727 1903.10742,1544.19141 C1899.29883,1524.92383 1894.85547,1505.24609 1889.875,1485.20703 C1903.83984,1481.08594 1917.54102,1476.82812 1930.91016,1472.39453 C2183.87891,1388.58594 2348.45898,1253.08789 2348.45898,1114.50391 C2348.45898,981.623047 2194.45508,853.107422 1956.13477,771.066406 C1932.64813,763.010034 1908.96223,755.546728 1885.09961,748.683594 C1889.05689,732.603571 1892.71637,716.45172 1896.07617,700.236328 C1949.8457,439.220703 1914.68945,228.947266 1794.63086,159.728516 C1679.52344,93.3417969 1491.26172,162.560547 1301.125,328.019531 Z M1798.69336,1509.12305 C1803.18555,1527.28711 1807.18945,1545.08984 1810.63672,1562.50195 C1832.7168,1674.04492 1835.87109,1774.89453 1821.24219,1853.73242 C1808.09766,1924.57227 1781.67188,1971.79883 1748.99609,1990.71484 C1679.45508,2030.96875 1530.73438,1978.64453 1370.36328,1840.63672 C1351.97461,1824.81641 1333.44922,1807.92188 1314.875,1790.05078 C1377.05273,1722.04297 1439.19141,1642.98047 1499.83594,1555.1875 C1606.51563,1545.72461 1707.29688,1530.24609 1798.69336,1509.12305 Z M696.417969,1513.3418 C786.798828,1533.33203 886.847656,1547.7168 993.78125,1556.38867 C1054.82617,1642.29687 1118.76172,1721.26172 1183.19531,1790.41211 C1169.50146,1803.65882 1155.48354,1816.56638 1141.1543,1829.12305 C1055.53906,1903.9668 969.748047,1957.05273 894.142578,1983.76172 L894.132812,1983.76172 C826.193359,2007.75586 772.082031,2008.43945 739.376953,1989.58203 C669.767578,1949.44531 640.841797,1794.46484 680.304687,1586.60352 C684.997461,1562.03868 690.370621,1537.60871 696.417969,1513.3418 Z M1378.36133,1563.23438 C1335.39258,1621.63281 1292.00391,1675.03125 1248.82031,1722.58008 C1204.14258,1674.36719 1159.58203,1621.04688 1116.05664,1563.69336 C1158.30273,1565.35352 1201.37891,1566.19336 1245.1582,1566.19336 C1290.13867,1566.19336 1334.60156,1565.1875 1378.36133,1563.23438 Z M1245.16797,761.007812 C1313.48828,761.007812 1380.86133,763.625 1446.4668,768.625 C1483.89205,823.942051 1519.35357,880.56257 1552.78516,938.380859 C1586.40561,996.350657 1618.13138,1055.39881 1647.91211,1115.43164 C1618.43772,1176.07611 1586.81286,1235.65163 1553.09766,1294.04492 L1553.08789,1294.04492 C1519.66211,1352.1109 1484.35699,1409.07459 1447.22852,1464.8457 C1381.75977,1469.52344 1314.10352,1471.93555 1245.1582,1471.93555 C1176.49609,1471.93555 1109.69922,1469.79687 1045.37305,1465.62695 C1007.2816,1409.9857 971.308619,1352.92342 937.53125,1294.5625 C903.911761,1236.51122 872.508925,1177.20417 843.390625,1116.76953 C872.434863,1056.31679 903.742804,996.977963 937.248047,938.878906 L937.248047,938.898437 C970.742778,880.787007 1006.43256,823.968711 1044.24023,768.566406 C1109.86523,763.605469 1177.15039,761.007812 1245.16797,761.007812 Z M793.390625,1227.60937 C813.345559,1266.1544 834.20419,1304.22482 855.949219,1341.78906 C878.137806,1380.10769 901.236817,1417.89187 925.226563,1455.10937 C852.960937,1447.04297 784.806641,1436.11523 721.867187,1422.41406 C741.349609,1359.50391 765.353516,1294.11328 793.390625,1227.60937 Z M1698.74219,1224.2207 C1728.23438,1291.44727 1753.09766,1356.48633 1772.84375,1418.33203 C1708.85938,1432.93164 1639.78711,1444.68945 1567.00391,1453.41992 C1590.32765,1416.44447 1612.9135,1379.00868 1634.74805,1341.13477 C1656.94419,1302.64302 1678.28086,1263.66202 1698.74219,1224.2207 Z M631.652344,838.117188 C659.269531,927.931641 695.490234,1021.83789 739.201172,1116.79883 C694.923828,1213.17578 658.185547,1308.57617 630.314453,1399.44531 C612.019935,1394.20891 593.856898,1388.5236 575.841797,1382.39453 C468.244141,1345.61719 379.386719,1297.82422 318.478516,1245.67578 C263.751953,1198.80078 236.115234,1152.26758 236.115234,1114.50391 C236.115234,1034.16211 355.910156,931.671875 555.705078,862.013672 C580.782219,853.308763 606.108822,845.339855 631.652344,838.117188 Z M1859.85547,839.503906 C1882.42383,846.046875 1904.33789,852.931641 1925.45117,860.207031 C2129.65039,930.490234 2254.20117,1034.42578 2254.20117,1114.50391 C2254.20117,1199.80664 2119.67969,1310.54883 1901.27148,1382.92188 L1901.26172,1382.92188 C1889.20117,1386.91602 1876.81836,1390.77344 1864.20117,1394.51367 C1836.27148,1306.10547 1798.57617,1212.0918 1752.46289,1114.97266 C1796.47656,1020.14844 1832.70703,927.345703 1859.85547,839.503906 Z M1245.1582,917.462891 C1136.33984,917.462891 1048.11719,1005.68555 1048.11719,1114.50391 C1048.11719,1223.33203 1136.33984,1311.55469 1245.1582,1311.55469 C1353.98633,1311.55469 1442.19922,1223.33203 1442.19922,1114.50391 C1442.19922,1005.68555 1353.98633,917.462891 1245.1582,917.462891 Z M1567.26758,780.802734 C1637.67773,789.689453 1705.12891,801.505859 1768.46875,815.96875 C1749.45508,876.916016 1725.75391,940.646484 1697.84375,1005.97852 C1677.45134,967.285057 1656.28827,929.002685 1634.36719,891.154297 C1612.79568,853.892872 1590.42395,817.100482 1567.26758,780.802734 Z M923.214844,780.626953 C899.798958,817.149653 877.243913,854.217161 855.568359,891.798828 C833.921739,929.346211 813.154366,967.393679 793.283203,1005.91016 C765.832031,940.802734 742.345703,876.789063 723.166016,814.972656 C786.125,800.880859 853.263672,789.367188 923.214844,780.626953 Z M1747.55078,241.388672 C1821.4375,284.005859 1850.17773,455.851562 1803.75195,681.212891 C1800.70899,695.893819 1797.40116,710.518599 1793.83008,725.080078 C1702.28711,703.957031 1602.87305,688.234375 1498.79102,678.46875 C1438.15625,592.130859 1375.33398,513.625 1312.26758,445.675781 C1328.79359,429.743632 1345.71287,414.224521 1363.00977,399.132812 C1525.91992,257.355469 1678.17578,201.378906 1747.55078,241.388672 Z M1147.02344,415.158203 C1158.01953,424.923828 1169.06445,435.148437 1180.12891,445.724609 C1116.02734,514.5625 1052.67773,592.931641 992.160156,678.341797 C888.380859,687.960938 789.035156,703.410156 697.707031,724.103516 C692.081283,701.571774 687.024339,678.901815 682.541016,656.115234 L682.541016,656.125 C641.066406,444.181641 668.605469,284.308594 737.912109,244.191406 C811.740234,201.457031 974.972656,262.394531 1147.02344,415.158203 Z M1246.21289,513.087891 C1289.68945,560.1875 1333.23437,612.785156 1376.06641,669.845703 C1289.18175,665.740041 1202.15212,665.720488 1115.26562,669.787109 C1158.13672,613.253906 1202.05273,560.734375 1246.21289,513.087891 Z" id="Combined-Shape"></path>
        </g>
    </g>
</svg>
